X:1
T:Title
%%score 1 { 2 | 3 }
L:1/8
Q:1/4=103
M:4/4
K:Bb
V:1 treble nm="Grand Piano, Soprano"
V:2 bass nm="Choir Pad, From the Cyber Hymnal™"
V:3 bass 
V:1
 [DF]3 [DB] [Fd]>[DB] [DB]>[Dc] | [EB]2 [EA]4 z2 | F3 [EG] [EA]>[DB] [Fd]>[Ec] | [DB]6 z2 | %4
w: By~Theodore~Edson~Perkins * * * * *||||
 [Ge]3 [EG] [EG]>[FA] [FB]>[Fc] | [Fd]4 [FB]2 [Gc]>[GB] | [FA]3 [FG] [EA]2 [EF]2 | [DB]6 z2 | %8
w: ||||
 [Fc]2 [Fd]2 [Fc] [FA]3 | [Ff]2 [Fd]2 [Fc] [FA]3 | [=EG]2 [EG]2 [Fc]3 [GB] | [FA]2 [=EG]2 F4 | %12
w: ||||
 [DF]3 [EG] [DF]2 [B,D]2 | [DB]3 [Fc] [GB]2 [EG]2 | [DF]3 [DB] [Fd]2 [FB]2 | %15
w: |||
 [Ec]2 [EA]2 [DB]2 [Ge]2 | [Gd]2 [Gc]2 [FB]2 [EA]2 | [DB]8 |] %18
w: |||
V:2
 B,3 B, F,>F, F,>F, | F,2 F,4 z2 | A,3 B, C>B, A,>A, | B,6 z2 | B,3 B, B,>C B,>A, | B,4 B,2 G,>C | %6
 C3 B, C2 A,2 | B,6 z2 | A,2 B,2 A, C3 | D2 B,2 A,[K:treble] C3 | C2 C2 C3 D | C2[K:bass] B,2 A,4 | %12
 B,3 B, B,2 F,2 | F,3 B, B,4 | B,3 B, F,2 B,2 | G,2[K:treble] C2 B,2 C2 | =B,2 C2 D2 C2 | B,8 |] %18
V:3
 B,,3 B,, B,,>B,, B,,>B,, | C,2 C,4 z2 | F,3 F, F,>F, F,>F, | B,,6 z2 | E,3 E, E,>E, D,>C, | %5
 B,,4 D,2 E,>=E, | F,3 F, F,2 F,2 | B,,6 z2 | F,2 F,2 F, F,3 | B,,2 B,,2 F, F,3 | %10
 C,2 B,,2 A,,3 B,, | C,2 C,2 F,4 | B,,3 B,, B,,2 B,,2 | B,,3 D, E,4 | B,,3 B,, B,,2 D,2 | %15
 E,2 F,2 G,2 C,2 | D,2 E,2 F,2 F,2 | B,,8 |] %18

